X: 10418
T: Donald Ross
R: waltz
M: 3/4
K: Gmajor
|B2 BA BG|D2 D2 D2|E2 ED EG|D2 D2 D2|
B2 BG Ac|B2 B2 d2|c2 c2 B2|B<A A2 A2|
B2 BA BG|D2 D2 D2|E2 ED EG|D2 D2 D2|
E2 ED EG|A2 AG B<A|A<G G2 G2|G2 G2 G2|
B2 BG Ac|B2 BG Ac|B2 B2 G2|A<G G2 G2|
E2 ED EG|D2 DD EG|D2 c2 cB|B<A A2 A2|
B2 BA BG|D2 D2 D2|E2 ED EG|D2 D2 D2|
E2 ED EG|A2 AG B<A|A<G G2 G2|G2 G2 G2|

